icons/4_Outdated/Ubuntu v1.svg

<svg xmlns="http://www.w3.org/2000/svg" width="1024" height="1024" fill="none">
   <g clip-path="url(#a)">
      <path fill="#F8C18C" d="M512 1024c282.77 0 512-229.23 512-512S794.77 0 512 0 0 229.23 0 512s229.23 512 512 512Z"/>
      <path fill="#fff" d="M512 243.199c-148.45 0-268.8 120.34-268.8 268.8s120.35 268.8 268.8 268.8c148.45 0 268.8-120.35 268.8-268.8 0-148.45-120.34-268.8-268.8-268.8Zm57.12 100.8a34.556 34.556 0 0 1 34.43-16.978 34.546 34.546 0 0 1 28.208 45.358 34.555 34.555 0 0 1-30.453 23.372 34.545 34.545 0 0 1-35.633-25.533 34.56 34.56 0 0 1 3.448-26.219Zm-231.2 202.56a34.561 34.561 0 0 1-33.873-41.314 34.556 34.556 0 0 1 47.123-25.173 34.554 34.554 0 0 1 21.33 31.927 34.559 34.559 0 0 1-34.58 34.56Zm30.5 3.33A48.607 48.607 0 0 0 381.8 491a48.61 48.61 0 0 0-13.38-16.881 148.713 148.713 0 0 1 61.25-85.69l25.68 42.93a98.552 98.552 0 0 0-30.809 35.208 98.553 98.553 0 0 0 30.809 126.102l-25.68 42.93a148.769 148.769 0 0 1-61.25-85.72v.01Zm247.9 142.8a34.544 34.544 0 0 1-38.296-2.549 34.549 34.549 0 0 1-12.311-36.353 34.554 34.554 0 0 1 28.866-25.295A34.551 34.551 0 0 1 629 645.469a34.567 34.567 0 0 1-12.68 47.22Zm.25-75.29a48.624 48.624 0 0 0-57.644 17.888A48.625 48.625 0 0 0 551 655.299a149.003 149.003 0 0 1-104.86-10.2l24.34-43.7a98.581 98.581 0 0 0 139.69-80.66l50 .78a148.068 148.068 0 0 1-43.59 95.88h-.01Zm-6.4-114.13a98.609 98.609 0 0 0-48.895-76.612 98.605 98.605 0 0 0-90.795-4.068l-24.34-43.7A149.005 149.005 0 0 1 551 368.709a48.623 48.623 0 0 0 44.28 41.026 48.61 48.61 0 0 0 21.3-3.126 147.995 147.995 0 0 1 43.61 95.87l-50.02.79Z"/>
   </g>
   <defs>
      <clipPath id="a">
         <path fill="#fff" d="M0 0h1024v1024H0z"/>
      </clipPath>
   </defs>
</svg>

<svg width="1024" height="1024" viewBox="0 0 1024 1024" fill="none" xmlns="http://www.w3.org/2000/svg">
<g clip-path="url(#clip0_3_713)">
<path d="M512 1024C794.77 1024 1024 794.77 1024 512C1024 229.23 794.77 0 512 0C229.23 0 0 229.23 0 512C0 794.77 229.23 1024 512 1024Z" fill="#F8C18C"/>
<path d="M512 243.199C363.55 243.199 243.2 363.539 243.2 511.999C243.2 660.459 363.55 780.799 512 780.799C660.45 780.799 780.8 660.449 780.8 511.999C780.8 363.549 660.46 243.199 512 243.199ZM569.12 343.999C572.537 338.082 577.632 333.31 583.76 330.288C589.889 327.266 596.776 326.129 603.55 327.021C610.325 327.913 616.683 330.793 621.82 335.299C626.958 339.804 630.644 345.731 632.413 352.331C634.182 358.932 633.954 365.908 631.758 372.379C629.562 378.849 625.497 384.523 620.076 388.684C614.656 392.844 608.123 395.303 601.305 395.751C594.486 396.199 587.688 394.615 581.77 391.199C573.835 386.616 568.045 379.07 565.672 370.218C563.3 361.367 564.54 351.936 569.12 343.999ZM337.92 546.559C331.086 546.555 324.406 544.525 318.725 540.725C313.044 536.925 308.618 531.526 306.005 525.211C303.392 518.896 302.711 511.947 304.047 505.245C305.382 498.542 308.676 492.386 313.51 487.555C318.344 482.723 324.502 479.434 331.205 478.102C337.909 476.77 344.857 477.456 351.17 480.072C357.484 482.688 362.881 487.118 366.677 492.801C370.474 498.484 372.5 505.165 372.5 511.999C372.5 516.539 371.606 521.035 369.868 525.229C368.13 529.424 365.582 533.234 362.371 536.444C359.159 539.653 355.347 542.199 351.152 543.934C346.957 545.67 342.46 546.562 337.92 546.559ZM368.42 549.889C374.086 545.334 378.659 539.565 381.8 533.009C384.942 526.452 386.573 519.275 386.573 512.004C386.573 504.734 384.942 497.556 381.8 491C378.659 484.443 374.086 478.675 368.42 474.119C377.699 439.04 399.483 408.563 429.67 388.429L455.35 431.359C442.403 440.452 431.836 452.528 424.541 466.567C417.245 480.605 413.437 496.193 413.437 512.014C413.437 527.835 417.245 543.423 424.541 557.462C431.836 571.5 442.403 583.576 455.35 592.669L429.67 635.599C399.481 615.454 377.697 584.967 368.42 549.879V549.889ZM616.32 692.689C610.4 696.098 603.602 697.675 596.786 697.221C589.969 696.767 583.441 694.303 578.024 690.14C572.608 685.976 568.548 680.301 566.357 673.83C564.165 667.36 563.941 660.385 565.713 653.787C567.485 647.189 571.173 641.265 576.31 636.763C581.448 632.26 587.805 629.382 594.579 628.492C601.352 627.602 608.237 628.74 614.364 631.761C620.49 634.783 625.584 639.553 629 645.469C631.268 649.402 632.74 653.743 633.33 658.245C633.92 662.747 633.618 667.321 632.441 671.706C631.263 676.09 629.234 680.2 626.468 683.801C623.702 687.401 620.254 690.422 616.32 692.689ZM616.57 617.399C609.793 614.781 602.516 613.714 595.273 614.278C588.03 614.842 581.005 617.021 574.715 620.657C568.425 624.293 563.03 629.292 558.926 635.287C554.822 641.282 552.114 648.12 551 655.299C515.971 664.782 478.685 661.155 446.14 645.099L470.48 601.399C484.829 608.058 500.569 611.167 516.372 610.462C532.175 609.758 547.576 605.26 561.275 597.35C574.973 589.44 586.568 578.35 595.078 565.016C603.588 551.681 608.765 536.495 610.17 520.739L660.17 521.519C657.882 557.741 642.37 591.862 616.58 617.399H616.57ZM610.17 503.269C608.763 487.514 603.586 472.328 595.076 458.993C586.566 445.659 574.973 434.568 561.275 426.657C547.577 418.746 532.177 414.246 516.374 413.538C500.572 412.83 484.831 415.934 470.48 422.589L446.14 378.889C478.688 362.84 515.973 359.22 551 368.709C552.113 375.89 554.822 382.729 558.926 388.725C563.031 394.721 568.427 399.721 574.718 403.357C581.01 406.993 588.036 409.172 595.28 409.735C602.524 410.298 609.803 409.23 616.58 406.609C642.381 432.137 657.901 466.256 660.19 502.479L610.17 503.269Z" fill="white"/>
</g>
<defs>
<clipPath id="clip0_3_713">
<rect width="1024" height="1024" fill="white"/>
</clipPath>
</defs>
</svg>
